X: 243
T: Fife Hunt
R: reel
M: C
L: 1/8
Z: 2012 John Chambers <jc:trillian.mit.edu>
B: J. Anderson "Budget of Strathspeys, Reels and Country Dances" (Early 1800s) p.24 #3
F: http://imslp.org/wiki/Anderson%27s_Budget_of_Strathspeys,_Reels_and_Country_Dances_(Various)
N: The 2nd part has initial repeat but no final repeat.  Deleted the repeat symbol.
K: C
f | (ec)c2 (GE)E2 | Dddc d2(df) | eccA GFED | cccB c2c :|
f | ecgc acgc | Addc d2(df) | ecgc acgc | GcBd c2(c ||
f)| ecgc acgc | Addc d2(df) | egag fedc | GcBd cag |]

%%sep 2 1 500
%%sep 1 1 500

